src/images/thumbnails/part-0_ovr.svg

<svg version="1.1" id="Layer_1" xmlns="http://www.w3.org/2000/svg" xmlns:xlink="http://www.w3.org/1999/xlink" x="0px" y="0px"
	 width="100%" viewBox="0 0 635 635" enable-background="new 0 0 635 635" xml:space="preserve">
<path fill="#706BE4" opacity="1.000000" stroke="none" 
	d="
M1.300581,531.180664 
	C1.000000,355.893463 1.020001,180.786926 0.879901,5.680512 
	C0.876542,1.482251 1.905185,0.896350 5.816378,0.898504 
	C214.244736,1.013294 422.673157,1.019840 631.101440,0.867971 
	C635.601013,0.864692 636.114746,2.131138 636.095581,6.098603 
	C635.929504,40.419315 636.000000,74.741165 636.000000,109.531342 
	C634.490173,111.308914 634.046265,113.352165 632.368286,114.665321 
	C627.393066,118.558830 627.344971,118.793915 630.819641,123.776100 
	C632.740479,126.530273 633.848938,129.653381 635.758667,132.752197 
	C636.000000,299.107086 635.978882,465.214233 636.120422,631.321167 
	C636.124023,635.522949 635.089783,636.103394 631.182068,636.101257 
	C422.590240,635.986755 213.998352,635.985840 5.406559,636.107056 
	C1.451212,636.109314 0.888769,634.989929 0.911634,631.409180 
	C1.076524,605.586060 1.000000,579.761475 1.000000,553.468628 
	C3.142273,550.201355 5.884516,548.136047 8.810420,546.196533 
	C19.462666,539.135437 30.110558,532.066711 40.709183,524.925049 
	C45.261425,521.857605 45.361900,520.986084 42.176201,516.117676 
	C38.404011,510.352966 37.477482,509.945404 32.942299,512.986328 
	C24.532722,518.625000 16.017153,524.097351 7.486629,529.547729 
	C5.709292,530.683350 4.033889,532.291565 1.300581,531.180664 
z"/>
<path fill="#010103" opacity="1.000000" stroke="none" 
	d="
M1.000000,531.468567 
	C12.270112,523.621643 23.614271,516.352417 34.760258,508.791107 
	C37.682816,506.808411 39.212040,506.958862 40.827213,510.082581 
	C43.017864,514.319214 48.708252,518.181458 47.610664,522.180237 
	C46.668259,525.613647 40.627148,527.709656 36.753498,530.264832 
	C25.093775,537.955872 13.391495,545.582397 1.352899,553.117065 
	C1.000000,545.979065 1.000000,538.958069 1.000000,531.468567 
z"/>
<path fill="#040307" opacity="1.000000" stroke="none" 
	d="
M636.000000,132.531372 
	C631.696838,131.941193 630.984131,127.675133 628.895081,124.750343 
	C623.810669,117.631706 623.965454,117.517525 631.149597,112.734749 
	C632.522888,111.820450 633.914795,110.934135 635.649048,110.017464 
	C636.000000,117.354248 636.000000,124.708496 636.000000,132.531372 
z"/>
<path fill="#010102" opacity="1.000000" stroke="none" 
	d="
M365.536865,93.620911 
	C373.662079,76.140587 386.654449,66.160629 405.847839,64.901985 
	C425.357971,63.622574 439.996521,71.941162 449.189667,88.667671 
	C458.251740,105.155693 457.562592,121.989326 446.681946,137.725952 
	C433.564301,156.697937 408.287476,162.823746 387.485199,152.379166 
	C367.275238,142.231995 357.420959,118.142372 364.558685,96.328781 
	C364.817291,95.538445 365.096649,94.754898 365.536865,93.620911 
z"/>
<path fill="#010102" opacity="1.000000" stroke="none" 
	d="
M85.078140,379.960449 
	C68.405807,367.878906 61.968739,351.596008 65.660927,332.082306 
	C69.150291,313.640533 80.905617,301.663330 99.013191,296.599030 
	C123.988281,289.613922 149.555038,304.652191 155.972763,329.718353 
	C162.453568,355.030975 147.083252,380.916870 121.746773,386.527588 
	C108.950523,389.361328 96.565430,387.621826 85.078140,379.960449 
z"/>
<path fill="#010102" opacity="1.000000" stroke="none" 
	d="
M270.310944,199.596619 
	C273.511963,225.688965 253.229172,246.749603 231.802933,249.709595 
	C206.162857,253.251709 183.142609,237.257782 178.779419,212.997009 
	C174.278763,187.971848 189.130768,164.593735 213.190475,158.831543 
	C240.926865,152.188766 267.579224,171.011200 270.310944,199.596619 
z"/>
<path fill="#D8D8D9" opacity="1.000000" stroke="none" 
	d="
M386.773682,465.466095 
	C383.039490,484.689667 372.456573,497.983154 354.031525,503.297363 
	C335.451080,508.656311 318.444366,504.515564 305.527557,489.477570 
	C293.040558,474.939941 290.289917,458.050110 298.066925,440.493774 
	C305.804230,423.027191 319.719391,413.439636 339.138641,412.902435 
	C368.295441,412.095856 388.405548,434.164551 386.773682,465.466095 
z"/>
<path fill="#010101" opacity="1.000000" stroke="none" 
	d="
M246.655746,128.886795 
	C220.962524,134.218735 196.910706,117.977127 191.712997,94.616074 
	C187.635284,76.288826 192.192322,60.056686 206.951416,47.923779 
	C221.340042,36.095425 237.877426,33.240932 255.071838,40.811718 
	C272.549103,48.507042 282.106171,62.505245 282.955383,81.732864 
	C283.958740,104.451637 270.308167,122.071587 246.655746,128.886795 
z"/>
<path fill="#010101" opacity="1.000000" stroke="none" 
	d="
M33.264702,109.253128 
	C53.971966,91.757477 80.844620,93.180550 98.987190,112.471405 
	C115.149368,129.656525 114.993103,158.103271 98.643173,175.095352 
	C80.124901,194.340927 50.615643,195.088226 32.032528,176.782227 
	C12.969571,158.003540 13.392953,128.938522 33.264702,109.253128 
z"/>
<path fill="#D8D8D9" opacity="1.000000" stroke="none" 
	d="
M614.903076,544.619995 
	C610.898376,567.993469 593.375244,584.204407 571.636658,585.059265 
	C548.402344,585.972961 529.122009,572.445679 523.809387,550.880188 
	C519.227600,532.281616 524.009033,515.998474 538.666077,503.577789 
	C553.161316,491.294220 570.129700,489.024048 587.336487,496.511658 
	C605.056580,504.222656 614.129333,518.746277 614.984253,538.177917 
	C615.071899,540.170349 614.962708,542.171387 614.903076,544.619995 
z"/>
<path fill="#D8D8D9" opacity="1.000000" stroke="none" 
	d="
M451.129700,591.997986 
	C440.999847,611.904053 423.326416,621.392090 401.716614,618.793335 
	C383.984283,616.660889 368.086639,602.287354 363.627594,584.355774 
	C356.361908,555.137634 377.598358,528.155212 407.560913,526.620911 
	C439.751740,524.972656 465.166504,559.642273 451.129700,591.997986 
z"/>
<path fill="#D8D8D9" opacity="1.000000" stroke="none" 
	d="
M197.312424,507.445984 
	C220.742172,512.145081 235.170181,528.797241 236.640762,552.424561 
	C237.862747,572.057861 224.778961,591.226990 205.278427,597.442871 
	C186.605942,603.394836 169.876770,599.509644 156.394592,585.134644 
	C143.317902,571.191956 140.422379,554.472717 147.138641,536.878845 
	C154.052536,518.767151 168.086426,509.037323 187.417831,507.229309 
	C190.541245,506.937164 193.726074,507.301453 197.312424,507.445984 
z"/>
<path fill="#D8D8D9" opacity="1.000000" stroke="none" 
	d="
M533.876892,274.124542 
	C548.428589,288.900604 552.195679,309.711121 543.723267,327.384247 
	C535.355713,344.838654 516.592163,355.591736 497.623962,353.802979 
	C477.924164,351.945282 461.756622,338.325226 456.722961,319.346771 
	C451.400024,299.277863 459.995544,278.174927 477.803131,267.592377 
	C496.185730,256.668182 517.952271,259.117676 533.876892,274.124542 
z"/>
<path fill="#020204" opacity="1.000000" stroke="none" 
	d="
M119.783936,457.233002 
	C117.463814,454.668549 117.996162,453.281219 120.609100,451.585541 
	C134.397125,442.638062 148.086136,433.535736 161.711411,424.341766 
	C164.167130,422.684692 165.543365,422.529785 167.114670,425.352722 
	C169.521301,429.676453 174.691345,434.063843 174.257217,437.926117 
	C173.803619,441.961334 166.954376,443.809082 162.886398,446.575897 
	C152.727310,453.485596 142.326141,460.044647 132.271927,467.100372 
	C128.744507,469.575806 126.983948,468.946503 125.110954,465.486572 
	C123.614311,462.721893 121.707146,460.179382 119.783936,457.233002 
z"/>
<path fill="#010103" opacity="1.000000" stroke="none" 
	d="
M406.070801,262.104919 
	C409.558441,259.801056 412.809540,257.781372 415.891602,255.530228 
	C417.700745,254.208832 418.717285,254.549713 419.833740,256.344208 
	C422.202087,260.150818 424.624542,263.931213 427.206512,267.594238 
	C428.475037,269.393921 428.221222,270.419312 426.439697,271.592224 
	C412.150970,280.999817 397.867737,290.416870 383.673035,299.964996 
	C381.450897,301.459747 380.545929,300.614929 379.418335,298.836273 
	C377.284973,295.471222 375.219391,292.035400 372.770599,288.906891 
	C370.816650,286.410614 371.296448,285.249084 373.850891,283.588745 
	C384.572784,276.619659 395.139648,269.412109 406.070801,262.104919 
z"/>
<path fill="#020204" opacity="1.000000" stroke="none" 
	d="
M484.008545,215.756165 
	C486.290192,219.279480 488.294098,222.543579 490.525696,225.643768 
	C491.793732,227.405380 491.598328,228.365448 489.774811,229.563858 
	C475.464294,238.968689 461.194885,248.436508 446.959930,257.955353 
	C445.204651,259.129089 444.003113,259.216675 443.021149,257.205750 
	C442.948242,257.056519 442.864075,256.912018 442.775604,256.771332 
	C440.037079,252.417053 434.936829,247.887299 435.244843,243.761154 
	C435.532806,239.903137 442.584320,237.909698 446.678925,235.137711 
	C457.141083,228.054993 467.785065,221.239288 478.196442,214.084122 
	C481.007538,212.152237 482.497711,212.673080 484.008545,215.756165 
z"/>
<path fill="#020204" opacity="1.000000" stroke="none" 
	d="
M76.835632,480.849976 
	C84.314079,475.855499 91.534706,471.120972 98.629944,466.205444 
	C100.860847,464.659912 102.203468,464.592499 103.674713,467.139648 
	C105.746857,470.727112 108.018158,474.224182 110.489914,477.547485 
	C112.145432,479.773376 111.507423,480.786163 109.437325,482.144287 
	C95.418610,491.341492 81.447495,500.612244 67.533455,509.967010 
	C65.378937,511.415558 64.186165,511.287109 62.826702,509.026703 
	C60.690235,505.474365 58.411938,501.986115 55.922817,498.674316 
	C54.208675,496.393616 55.031307,495.340363 57.055367,494.026703 
	C63.599632,489.779358 70.045555,485.380493 76.835632,480.849976 
z"/>
<path fill="#020103" opacity="1.000000" stroke="none" 
	d="
M283.553741,343.583984 
	C291.602325,338.226593 291.602325,338.226593 296.784058,345.997528 
	C302.110138,353.984924 302.113831,353.990479 294.295074,359.181274 
	C282.246735,367.179993 270.120026,375.064209 258.192200,383.238678 
	C255.212646,385.280609 253.730072,384.934570 252.150070,381.877136 
	C249.964996,377.648895 244.268707,373.803284 245.397842,369.797363 
	C246.367645,366.356689 252.399261,364.300598 256.253723,361.723724 
	C265.235565,355.718964 274.254333,349.769348 283.553741,343.583984 
z"/>
<path fill="#020203" opacity="1.000000" stroke="none" 
	d="
M600.224854,133.250366 
	C608.143555,127.990738 608.143616,127.990715 613.105835,135.421295 
	C618.653870,143.728989 618.661621,143.740631 610.211365,149.358490 
	C598.435730,157.187180 586.593445,164.917587 574.904541,172.873474 
	C572.229492,174.694229 570.648376,175.261642 568.824646,171.889496 
	C566.542603,167.670166 561.340881,163.433685 561.807434,159.765289 
	C562.290833,155.964981 568.937561,154.089432 572.907166,151.407623 
	C581.867737,145.353958 590.916321,139.430511 600.224854,133.250366 
z"/>
<path fill="#020204" opacity="1.000000" stroke="none" 
	d="
M192.793579,403.795776 
	C203.756104,396.520325 214.462448,389.509644 225.044830,382.316620 
	C227.523376,380.631866 228.909927,380.649323 230.481323,383.392853 
	C232.867035,387.558136 237.882645,391.668976 237.612473,395.509705 
	C237.321655,399.643799 230.622238,401.285248 226.705307,403.961884 
	C216.004227,411.274384 205.092468,418.278168 194.365723,425.553925 
	C192.085648,427.100433 190.607529,427.249298 189.352463,424.619293 
	C189.139633,424.173370 188.800995,423.789307 188.552078,423.358429 
	C186.258484,419.388000 180.969040,415.541412 182.002472,411.757751 
	C182.902954,408.460754 188.801880,406.528992 192.793579,403.795776 
z"/>
<path fill="#020204" opacity="1.000000" stroke="none" 
	d="
M319.457916,342.490234 
	C315.409576,342.749298 315.229736,339.151276 313.792542,337.091156 
	C307.323181,327.817841 307.435883,327.747437 316.836975,321.513489 
	C328.336456,313.888123 339.900024,306.355804 351.275085,298.549011 
	C354.184967,296.551941 355.690186,296.742645 357.378601,299.804199 
	C359.058075,302.849579 360.978973,305.820801 363.188843,308.498749 
	C365.595428,311.415100 364.538086,312.715424 361.777710,314.507538 
	C347.695862,323.649994 333.749573,333.001190 319.457916,342.490234 
z"/>
<path fill="#020205" opacity="1.000000" stroke="none" 
	d="
M507.643005,194.665131 
	C519.172241,187.005600 530.453613,179.623947 541.595459,172.037384 
	C544.066345,170.354950 545.393738,170.315262 546.965820,173.044205 
	C549.038208,176.641647 551.442444,180.059860 553.869141,183.436417 
	C555.157410,185.228912 554.841614,186.143097 553.035461,187.330521 
	C538.712097,196.747467 524.435364,206.235825 510.198730,215.783356 
	C508.380859,217.002472 507.408569,216.802628 506.267120,214.971054 
	C503.979492,211.300217 501.561127,207.705093 499.061707,204.174301 
	C497.747375,202.317627 497.655212,201.061203 499.835663,199.800690 
	C502.423981,198.304367 504.848999,196.525528 507.643005,194.665131 
z"/>
</svg>

<svg xmlns="http://www.w3.org/2000/svg" width="100%" viewBox="0 0 635 635" height="150" xmlns:v="https://vecta.io/nano"><path fill="#706be4" d="M1.301 531.181L.88 5.681C.877 1.482 1.905.896 5.816.899L631.101.868c4.5-.003 5.013 1.263 4.994 5.231L636 109.531c-1.51 1.778-1.954 3.821-3.632 5.134-4.975 3.894-5.023 4.129-1.549 9.111 1.921 2.754 3.029 5.877 4.939 8.976l.362 498.569c.004 4.202-1.031 4.782-4.938 4.78-208.592-.115-417.184-.115-625.776.006-3.955.002-4.518-1.117-4.495-4.698L1 553.469c2.142-3.267 4.885-5.333 7.81-7.272l31.899-21.271c4.552-3.067 4.653-3.939 1.467-8.807-3.772-5.765-4.699-6.172-9.234-3.131L7.487 529.548c-1.777 1.136-3.453 2.744-6.186 1.633z"/><path fill="#010103" d="M1 531.469c11.27-7.847 22.614-15.116 33.76-22.677 2.923-1.983 4.452-1.832 6.067 1.291 2.191 4.237 7.881 8.099 6.783 12.098-.942 3.433-6.984 5.529-10.857 8.085L1.353 553.117C1 545.979 1 538.958 1 531.469z"/><path fill="#040307" d="M636 132.531c-4.303-.59-5.016-4.856-7.105-7.781-5.084-7.119-4.93-7.233 2.255-12.016 1.373-.914 2.765-1.801 4.499-2.717.351 7.337.351 14.691.351 22.514z"/><path d="M365.537 93.621c8.125-17.48 21.118-27.46 40.311-28.719 19.51-1.279 34.149 7.039 43.342 23.766 9.062 16.488 8.373 33.322-2.508 49.058-13.118 18.972-38.394 25.098-59.197 14.653-20.21-10.147-30.064-34.237-22.927-56.05.259-.79.538-1.574.978-2.708zM85.078 379.96c-16.672-12.082-23.109-28.364-19.417-47.878 3.489-18.442 15.245-30.419 33.352-35.483 24.975-6.985 50.542 8.053 56.96 33.119 6.481 25.313-8.89 51.199-34.226 56.809-12.796 2.834-25.181 1.094-36.669-6.567zm185.233-180.363c3.201 26.092-17.082 47.153-38.508 50.113-25.64 3.542-48.66-12.452-53.024-36.713-4.501-25.025 10.351-48.403 34.411-54.165 27.736-6.643 54.389 12.18 57.12 40.765z" fill="#010102"/><path fill="#d8d8d9" d="M386.774 465.466c-3.734 19.224-14.317 32.517-32.742 37.831-18.58 5.359-35.587 1.218-48.504-13.82-12.487-14.538-15.238-31.427-7.461-48.984 7.737-17.467 21.652-27.054 41.072-27.591 29.157-.807 49.267 21.262 47.635 52.564z"/><path d="M246.656 128.887c-25.693 5.332-49.745-10.91-54.943-34.271-4.078-18.327.479-34.559 15.238-46.692 14.389-11.828 30.926-14.683 48.12-7.112 17.477 7.695 27.034 21.694 27.884 40.921 1.003 22.719-12.647 40.339-36.3 47.154zM33.265 109.253c20.707-17.496 47.58-16.073 65.722 3.218 16.162 17.185 16.006 45.632-.344 62.624-18.518 19.246-48.028 19.993-66.611 1.687-19.063-18.779-18.64-47.844 1.232-67.529z" fill="#010101"/><path d="M614.903 544.62c-4.005 23.373-21.528 39.584-43.266 40.439-23.234.914-42.515-12.614-47.827-34.179-4.582-18.599.2-34.882 14.857-47.302 14.495-12.284 31.464-14.554 48.67-7.066 17.72 7.711 26.793 22.235 27.648 41.666.088 1.992-.022 3.993-.081 6.442zM451.13 591.998c-10.13 19.906-27.803 29.394-49.413 26.795-17.732-2.132-33.63-16.506-38.089-34.438-7.266-29.218 13.971-56.201 43.933-57.735 32.191-1.648 57.606 33.021 43.569 65.377zm-253.818-84.552c23.43 4.699 37.858 21.351 39.328 44.979 1.222 19.633-11.862 38.802-31.362 45.018-18.672 5.952-35.402 2.067-48.884-12.308-13.077-13.943-15.972-30.662-9.256-48.256 6.914-18.112 20.948-27.842 40.279-29.65 3.123-.292 6.308.072 9.895.217zm336.565-233.321c14.552 14.776 18.319 35.587 9.846 53.26-8.368 17.454-27.131 28.207-46.099 26.419-19.7-1.858-35.867-15.478-40.901-34.456-5.323-20.069 3.273-41.172 21.08-51.754 18.383-10.924 40.149-8.475 56.074 6.532z" fill="#d8d8d9"/><path fill="#020204" d="M119.784 457.233c-2.32-2.564-1.788-3.952.825-5.647l41.102-27.244c2.456-1.657 3.832-1.812 5.403 1.011 2.407 4.324 7.577 8.711 7.143 12.573-.454 4.035-7.303 5.883-11.371 8.65L132.272 467.1c-3.527 2.475-5.288 1.846-7.161-1.614-1.497-2.765-3.404-5.307-5.327-8.254z"/><path fill="#010103" d="M406.071 262.105c3.488-2.304 6.739-4.324 9.821-6.575 1.809-1.321 2.826-.981 3.942.814 2.368 3.807 4.791 7.587 7.373 11.25 1.269 1.8 1.015 2.825-.767 3.998l-42.767 28.373c-2.222 1.495-3.127.65-4.255-1.129-2.133-3.365-4.199-6.801-6.648-9.929-1.954-2.496-1.474-3.658 1.08-5.318l32.22-21.484z"/><path d="M484.009 215.756c2.282 3.523 4.286 6.787 6.517 9.888 1.268 1.762 1.073 2.722-.751 3.92l-42.815 28.391c-1.755 1.174-2.957 1.261-3.939-.75a4.68 4.68 0 0 0-.246-.434c-2.739-4.354-7.839-8.884-7.531-13.01.288-3.858 7.339-5.851 11.434-8.623l31.518-21.054c2.811-1.932 4.301-1.411 5.812 1.672zM76.836 480.85l21.794-14.645c2.231-1.546 3.574-1.613 5.045.934 2.072 3.587 4.343 7.085 6.815 10.408 1.656 2.226 1.018 3.239-1.053 4.597l-41.904 27.823c-2.155 1.449-3.347 1.32-4.707-.94-2.136-3.552-4.415-7.041-6.904-10.352-1.714-2.281-.892-3.334 1.133-4.648l19.78-13.177z" fill="#020204"/><path fill="#020103" d="M283.554 343.584c8.049-5.357 8.049-5.357 13.23 2.414 5.326 7.987 5.33 7.993-2.489 13.184l-36.103 24.057c-2.98 2.042-4.462 1.696-6.042-1.362-2.185-4.228-7.881-8.074-6.752-12.08.97-3.441 7.001-5.497 10.856-8.074l27.3-18.14z"/><path fill="#020203" d="M600.225 133.25c7.919-5.26 7.919-5.26 12.881 2.171 5.548 8.308 5.556 8.319-2.894 13.937l-35.307 23.515c-2.675 1.821-4.256 2.388-6.08-.984-2.282-4.219-7.484-8.456-7.017-12.124.483-3.8 7.13-5.676 11.1-8.358l27.318-18.157z"/><path d="M192.794 403.796l32.251-21.479c2.479-1.685 3.865-1.667 5.436 1.076 2.386 4.165 7.401 8.276 7.131 12.117-.291 4.134-6.99 5.776-10.907 8.452l-32.34 21.592c-2.28 1.547-3.758 1.695-5.013-.935-.213-.446-.551-.83-.8-1.261-2.294-3.97-7.583-7.817-6.55-11.601.9-3.297 6.799-5.229 10.791-7.962zm126.664-61.306c-4.048.259-4.228-3.339-5.665-5.399-6.469-9.273-6.357-9.344 3.044-15.578l34.438-22.964c2.91-1.997 4.415-1.806 6.104 1.255 1.679 3.045 3.6 6.017 5.81 8.695 2.407 2.916 1.349 4.217-1.411 6.009l-42.32 27.983z" fill="#020204"/><path fill="#020205" d="M507.643 194.665l33.952-22.628c2.471-1.682 3.798-1.722 5.37 1.007 2.072 3.597 4.477 7.016 6.903 10.392 1.288 1.792.972 2.707-.834 3.894l-42.837 28.453c-1.818 1.219-2.79 1.019-3.932-.812-2.288-3.671-4.706-7.266-7.205-10.797-1.314-1.857-1.406-3.113.774-4.374 2.588-1.496 5.013-3.275 7.807-5.136z"/></svg>
